packages/swarm-icons/src/icons/large/Home.svg

<svg xmlns="http://www.w3.org/2000/svg" width="28" height="28" viewBox="0 0 28 28">
  <path fill="#212121" d="M10.6296317,23.6 L10.6296317,16.55 C10.6296317,15.9977153 11.077347,15.55 11.6296317,15.55 L16.4227035,15.55 C16.9749882,15.55 17.4227035,15.9977153 17.4227035,16.55 L17.4227035,23.6 L21.05,23.6 L21.05,13.1 C21.05,12.5477153 21.4977153,12.1 22.05,12.1 L22.8940418,12.1 L14,4.0953624 L5.10595823,12.1 L5.95,12.1 C6.50228475,12.1 6.95,12.5477153 6.95,13.1 L6.95,23.6 L10.6296317,23.6 Z M12.6296317,17.55 L12.6296317,24.6 C12.6296317,25.1522847 12.1819165,25.6 11.6296317,25.6 L5.95,25.6 C5.39771525,25.6 4.95,25.1522847 4.95,24.6 L4.95,14.1 L2.5,14.1 C1.58351585,14.1 1.14981796,12.9698014 1.83103527,12.3567059 L13.3310353,2.00670585 C13.7113402,1.66443138 14.2886598,1.66443138 14.6689647,2.00670585 L26.1689647,12.3567059 C26.850182,12.9698014 26.4164842,14.1 25.5,14.1 L23.05,14.1 L23.05,24.6 C23.05,25.1522847 22.6022847,25.6 22.05,25.6 L16.4227035,25.6 C15.8704187,25.6 15.4227035,25.1522847 15.4227035,24.6 L15.4227035,17.55 L12.6296317,17.55 Z"/>
</svg>

<svg xmlns="http://www.w3.org/2000/svg" width="28" height="28"><path fill="#212121" d="M10.63 23.6v-7.05a1 1 0 011-1h4.793a1 1 0 011 1v7.05h3.627V13.1a1 1 0 011-1h.844L14 4.095 5.106 12.1h.844a1 1 0 011 1v10.5h3.68zm2-6.05v7.05a1 1 0 01-1 1H5.95a1 1 0 01-1-1V14.1H2.5c-.916 0-1.35-1.13-.669-1.743l11.5-10.35a1 1 0 011.338 0l11.5 10.35c.681.613.247 1.743-.669 1.743h-2.45v10.5a1 1 0 01-1 1h-5.627a1 1 0 01-1-1v-7.05H12.63z"/></svg>
